!!!COM: Robert Schumann
!!!CNT: Deutsch
!!!TXO: Deutsch
!!!OTL: Lieder: aus dem Schenkenbuch im Divan No. 2
!!!LYR: Goethe
!!!OPR: Myrten
!!!OPS: Op. 25
!!!ONM: No. 6
!!!ENC: Ben Fuhrman
!!!YOR: Schumann Lieder - Max Friedlaender, ed.,
!!!YOR: New York: C. F. Peters, Vol. 1
!!!ODT: 1840/
!!NB: Vocal melody and text only encoded.
!!NB: First instance of melodic material only encoded.
**kern	**silbe
*clefG2	*
*k[]	*
*M6/8	*
!!created: 5/10/06 12:51
!!proofed and posted: 5/10/06 12:52
!!edit time: 21 minutes
=2	=2
{8.a	{Set-
16e	-ze
8e	mir
8f#}	nicht,}
8r	.
{8g#	{du
=3	=3
4a	Gro-
8b	-bi-
8cc	-an,
8cc	mir
8cc	den
=4	=4
4dd	Krug
8cc	so
8b	derb
8b	vor
8a	die
=5	=5
(4g#	Na-
8f#)	|
8e}	-se!}
{8dd	{Wer
8dd	mir
=6	=6
4ee	Wein
8cc	bringt,
8.a	se-
16a	he
8f#	mich
=7	=7
4d	freund-
8d	-lich
4e}	an,}
{8e	{sonst
=8	=8
8.cc	tru2bt
16cc	sich
8a	der
8f	Eil-
8f	-fer
8d	im
=9	=9
(4B	Gla-
8c)	|
[4.c	se!
=10	=10
4.c]}	|}
4r	.
8r	.
=11	=11
4r	.
8r	.
4r	.
{8e	{Du
=12	=12
*k[f#c#g#]	*
8.a	lieb-
16e	-li-
8e	-cher
8f#	Kna-
8f#	-be,
8g#	du,
=13	=13
4a	komm'
8b	her-
4cc#}	-ein,}
{8a	{was
=14	=14
8dd	stehst
8dd	du
8cc#	denn
8b	da
8b	auf
8a	der
=15	=15
(4g#	Schwel-
8f#)	|
4e}	le?}
8r	.
=16	=16
{8a	{du
8e	sollst
8e	mir
8.f#	ku2nf-
16f#	tig
8g#	der
=17	=17
4a	Schen-
8b	-ke
8cc#}	sein,}
{8a	{je-
8a	-der
=18	=18
4ff#	Wein
8dd	ist
8b	schmack-
8b	-haft
8a	und
=19	=19
4.g#	hel-
8a}	-le.}
8r	.
8r	.
==	==
*-	*-
